X: 5
T: John Howett
I: John Howett	R-83	D	reel
%%staffsep	46pt
M: C|
R: reel
K: D
%%textfont       Times-Roman 9.0
%%text Repeat part A 4 times
%%textfont       Times-Roman 7.0
fg| "D"a2fd "A"g2ec| "D"d2AG FDDF| "Em"E2FG ABcd|[1,3 "A"eAfA g2 :|[2,4 "A"eABc "D"d2 :|
z2|:"D"defg aAfA| "G"gfed "A"ceAe| "D"defg aAfA| "G"gba^g "A"a4|
"D"abaf "G"gfed| "Em"efgA "A"GFED| "D"F2AF "G"G2BG| "A"Addc "D"d4 :|
%%text Roaring Jelly  R-83
%%text 10/17/11 

#include "LeftHeader.h"
% ---------- set 22 ----------
% Westend (D) / Scotty O'Neil (D)

%%text Set 22
%%vskip -1cm
